X:1903
T:Lindegrens polkett - stämma
R:Polkett
Z:Anton Teljebäck
M:4/4
L:1/16
K:D
|:DDDD DDDD DDDD DDDD| DDDD DDDD AAAA AAAA | AAAA AAAA AAAA AAAA| AAAA AAAA DDDD DDDD|
DDDD DDDD DDDD DDDD| DDDD DDDD AAAA AAAA | AAAA AAAA AAAA AAAA| AAAA AAAA D4 D4:|
|: AAAA AAAA AAAA AAAA | BBBB BBBB BBBB BBBB | cccc cccc cccc cccc | dddd dddd dddd dddd |
AAAA AAAA AAAA AAAA | BBBB BBBB BBBB BBBB | cccc cccc cccc cccc | d4 d4 :|





(:musicend:)
(:music:)
